X: 23795
T: Little Jenny
R: hornpipe
M: 4/4
K: Cmajor
|:G>F|(3EGc e>d c>BA>G|(3FAc f>e d>cB>A|(3GBd g>e f>dA>B|(3cBc (3ecA G2 G>F|
(3EGc e>d c/d/c/B/A>G|(3FAc f>e d>cB>A|(3GBd g>e f>dA>B|c2 e2 c2:|
|:e>f|(3gec (3GcG e>dc>B|A>FA>c a2 d>e|f>dB>G F>GA>B|(3cBc (3ecA G2 e>f|
(3gec (3GcG e>dc>B|A>FA>c a2 d>e|f>dB>G F>GA>B|c2 e2 c2:|

